packages/icons/src/SVG/move-horizontal.svg

<!-- Generated by IcoMoon.io -->
<svg version="1.1" xmlns="http://www.w3.org/2000/svg" width="12" height="12" viewBox="0 0 12 12">
<title>move-horizontal</title>
<path d="M5 5.25h-2v-2.25l-3 3 3 3v-2.25h2v-1.5z"></path>
<path d="M7 5.25h2v-2.25l3 3-3 3v-2.25h-2v-1.5z"></path>
</svg>

<svg width="12" height="12" viewBox="0 0 12 12" fill="none" xmlns="http://www.w3.org/2000/svg">
<path d="M5 5.25H3V3L0 6L3 9V6.75H5V5.25Z" fill="#4C505B"/>
<path d="M7 5.25H9V3L12 6L9 9V6.75H7V5.25Z" fill="#4C505B"/>
</svg>
